X: 19
T: Leidandan haobi shui tuichuan
%%abc-version 2.0
%%abcx-abcm2ps-target-version 5.9.1 (29 Sep 2008)
%%abc-creator hum2abc beta
%%abcx-conversion-date 2013/10/02 07:52:29
%%abc-edited-by Helmut Schaffrath
%%humdrum-veritas 529239523
%%humdrum-veritas-data 1177770720
%%continueall 1
%%barnumbers 0
L: 1/8
M: 2/4
K: A
e> c f a [I:setbarnb 1]| 
e f c B/ B/ | 
c2F A | 
B4 | 
e> c f a | 
e f c B/ B/ | 
c2F A | 
E4 |]  



